scenes/runner/img/plat-short-1.svg

<svg xmlns="http://www.w3.org/2000/svg" viewBox="0 0 392 270"><path fill="#546E7A" d="M26 24h340v246H26z"/><path fill="#231F20" d="M26 24h340v22H26z" opacity=".1"/><path fill="#D7D7D7" d="M101 134h70v6h-70zm120 0h70v6h-70zm-120 90h70v6h-70zm120 0h70v6h-70z"/><path d="M106 165h27v27h-27zm33 0h27v27h-27zm-33 32h27v27h-27zm33 0h27v27h-27z" opacity=".3" fill="#fff"/><path d="M226 165h27v27h-27zm33 0h27v27h-27zm-33 32h27v27h-27zm33 0h27v27h-27z" opacity=".1" fill="#fff"/><path fill="#78909C" d="M106 75h27v27h-27zm33 0h27v27h-27zm-33 32h27v27h-27zm33 0h27v27h-27zm87-32h27v27h-27zm33 0h27v27h-27zm-33 32h27v27h-27zm33 0h27v27h-27zm-153 58h27v27h-27zm33 0h27v27h-27zm-33 32h27v27h-27zm33 0h27v27h-27zm87-32h27v27h-27zm33 0h27v27h-27zm-33 32h27v27h-27zm33 0h27v27h-27z"/><g fill="#fff"><path d="M138.1 141c0 4-3.6 8.1-8.1 8.1s-8.1-4.1-8.1-8.1h16.2z"/><path d="M130 150.1c-5.2 0-9.1-4.8-9.1-9.1 0-.6.4-1 1-1h16.2c.6 0 1 .4 1 1 0 4.3-3.9 9.1-9.1 9.1zm-7-8.1c.5 3 3.3 6.1 7 6.1s6.5-3 7-6.1h-14z"/><path d="M154.3 141c0 4-3.6 8.1-8.1 8.1s-8.1-4.1-8.1-8.1h16.2z"/><path d="M146.2 150.1c-5.2 0-9.1-4.8-9.1-9.1 0-.6.4-1 1-1h16.2c.6 0 1 .4 1 1 0 4.3-3.9 9.1-9.1 9.1zm-7-8.1c.5 3 3.3 6.1 7 6.1s6.5-3 7-6.1h-14z"/><path d="M170.4 141c0 4-3.6 8.1-8.1 8.1s-8.1-4.1-8.1-8.1h16.2z"/><path d="M162.4 150.1c-5.2 0-9.1-4.8-9.1-9.1 0-.6.4-1 1-1h16.2c.6 0 1 .4 1 1-.1 4.3-3.9 9.1-9.1 9.1zm-7-8.1c.5 3 3.3 6.1 7 6.1s6.5-3 7-6.1h-14z"/></g><path fill="#231F20" d="M26 24v54l340 20V24z" opacity=".1"/><path fill="#00ACC1" d="M390 41V9c0-4.4-3.6-8-8-8H10C5.6 1 2 4.6 2 9v32h388z"/><path fill="#231F20" d="M362 1h4v40h-4zm-28 0h4v40h-4zm-28 0h4v40h-4zm-28 0h4v40h-4zm-28 0h4v40h-4zm-28 0h4v40h-4zm-28 0h4v40h-4zm-28 0h4v40h-4zm-28 0h4v40h-4zm-28 0h4v40h-4zM82 1h4v40h-4zM54 1h4v40h-4zM26 1h4v40h-4z" opacity=".1"/><g fill="#fff"><path d="M19.6 42c0 4-3.6 8.1-8.1 8.1S3.4 46 3.4 42h16.2z"/><path d="M11.6 51.1c-5.2 0-9.1-4.8-9.1-9.1 0-.6.4-1 1-1h16.2c.6 0 1 .4 1 1-.1 4.3-3.9 9.1-9.1 9.1zm-7-8.1c.5 3 3.3 6.1 7 6.1s6.5-3 7-6.1h-14z"/><path d="M35.8 42c0 4-3.6 8.1-8.1 8.1S19.6 46 19.6 42h16.2z"/><path d="M27.7 51.1c-5.2 0-9.1-4.8-9.1-9.1 0-.6.4-1 1-1h16.2c.6 0 1 .4 1 1 0 4.3-3.9 9.1-9.1 9.1zm-7-8.1c.5 3 3.3 6.1 7 6.1s6.5-3 7-6.1h-14z"/><path d="M52 42c0 4-3.6 8.1-8.1 8.1S35.8 46 35.8 42H52z"/><path d="M43.9 51.1c-5.2 0-9.1-4.8-9.1-9.1 0-.6.4-1 1-1H52c.6 0 1 .4 1 1 0 4.3-3.9 9.1-9.1 9.1zm-7-8.1c.5 3 3.3 6.1 7 6.1s6.5-3 7-6.1h-14z"/></g><g fill="#fff"><path d="M287.9 42c0 4-3.6 8.1-8.1 8.1s-8.1-4.1-8.1-8.1h16.2z"/><path d="M279.8 51.1c-5.2 0-9.1-4.8-9.1-9.1 0-.6.4-1 1-1h16.2c.6 0 1 .4 1 1 0 4.3-3.9 9.1-9.1 9.1zm-7-8.1c.5 3 3.3 6.1 7 6.1s6.5-3 7-6.1h-14z"/><path d="M304.1 42c0 4-3.6 8.1-8.1 8.1s-8.1-4.1-8.1-8.1h16.2z"/><path d="M296 51.1c-5.2 0-9.1-4.8-9.1-9.1 0-.6.4-1 1-1h16.2c.6 0 1 .4 1 1 0 4.3-3.9 9.1-9.1 9.1zm-7-8.1c.5 3 3.3 6.1 7 6.1s6.5-3 7-6.1h-14z"/></g><g fill="#fff"><path d="M356.7 42c0 4-3.6 8.1-8.1 8.1s-8.1-4.1-8.1-8.1h16.2z"/><path d="M348.6 51.1c-5.2 0-9.1-4.8-9.1-9.1 0-.6.4-1 1-1h16.2c.6 0 1 .4 1 1 0 4.3-3.9 9.1-9.1 9.1zm-7-8.1c.5 3 3.3 6.1 7 6.1s6.5-3 7-6.1h-14z"/><path d="M372.9 42c0 4-3.6 8.1-8.1 8.1s-8.1-4.1-8.1-8.1h16.2z"/><path d="M364.8 51.1c-5.2 0-9.1-4.8-9.1-9.1 0-.6.4-1 1-1h16.2c.6 0 1 .4 1 1 0 4.3-3.9 9.1-9.1 9.1zm-7-8.1c.5 3 3.3 6.1 7 6.1s6.5-3 7-6.1h-14z"/><path d="M389.1 42c0 4-3.6 8.1-8.1 8.1s-8.1-4.1-8.1-8.1h16.2z"/><path d="M381 51.1c-5.2 0-9.1-4.8-9.1-9.1 0-.6.4-1 1-1h16.2c.6 0 1 .4 1 1 0 4.3-3.9 9.1-9.1 9.1zm-7-8.1c.5 3 3.3 6.1 7 6.1s6.5-3 7-6.1h-14z"/></g><path fill="none" d="M0 0h392v270H0z"/></svg>

<?xml version="1.0" encoding="utf-8"?>
<!-- Generator: Adobe Illustrator 21.0.0, SVG Export Plug-In . SVG Version: 6.00 Build 0)  -->
<svg version="1.1" id="Layer_1" xmlns="http://www.w3.org/2000/svg" xmlns:xlink="http://www.w3.org/1999/xlink" x="0px" y="0px"
	 viewBox="0 0 442 270" style="enable-background:new 0 0 442 270;" xml:space="preserve">
<style type="text/css">
	.st0{fill:#21586D;}
	.st1{opacity:0.1;}
	.st2{fill:#231F20;}
	.st3{fill:#D7D7D7;}
	.st4{opacity:0.3;}
	.st5{fill:#FFFFFF;}
	.st6{fill:#2D6175;}
	.st7{opacity:0.2;enable-background:new    ;}
	.st8{fill:#0094A2;}
	.st9{fill:#00ACC1;}
	.st10{opacity:0.39;}
	.st11{fill:#78D3DE;}
	.st12{fill:none;}
</style>
<g>
	<rect x="26" y="24" class="st0" width="340" height="246"/>
</g>
<g class="st1">
	<g>
		<rect x="26" y="24" class="st2" width="340" height="22"/>
	</g>
</g>
<g>
	<rect x="101" y="134" class="st3" width="70" height="6"/>
</g>
<g>
	<rect x="221" y="134" class="st3" width="70" height="6"/>
</g>
<g>
	<rect x="101" y="224" class="st3" width="70" height="6"/>
</g>
<g>
	<rect x="221" y="224" class="st3" width="70" height="6"/>
</g>
<g class="st4">
	<g>
		<rect x="106" y="165" class="st5" width="27" height="27"/>
	</g>
	<g>
		<rect x="139" y="165" class="st5" width="27" height="27"/>
	</g>
	<g>
		<rect x="106" y="197" class="st5" width="27" height="27"/>
	</g>
	<g>
		<rect x="139" y="197" class="st5" width="27" height="27"/>
	</g>
</g>
<g class="st1">
	<g>
		<rect x="226" y="165" class="st5" width="27" height="27"/>
	</g>
	<g>
		<rect x="259" y="165" class="st5" width="27" height="27"/>
	</g>
	<g>
		<rect x="226" y="197" class="st5" width="27" height="27"/>
	</g>
	<g>
		<rect x="259" y="197" class="st5" width="27" height="27"/>
	</g>
</g>
<g>
	<g>
		<rect x="106" y="75" class="st6" width="27" height="27"/>
	</g>
	<g>
		<rect x="139" y="75" class="st6" width="27" height="27"/>
	</g>
	<g>
		<rect x="106" y="107" class="st6" width="27" height="27"/>
	</g>
	<g>
		<rect x="139" y="107" class="st6" width="27" height="27"/>
	</g>
</g>
<g>
	<g>
		<rect x="226" y="75" class="st6" width="27" height="27"/>
	</g>
	<g>
		<rect x="259" y="75" class="st6" width="27" height="27"/>
	</g>
	<g>
		<rect x="226" y="107" class="st6" width="27" height="27"/>
	</g>
	<g>
		<rect x="259" y="107" class="st6" width="27" height="27"/>
	</g>
</g>
<g>
	<g>
		<rect x="106" y="165" class="st6" width="27" height="27"/>
	</g>
	<g>
		<rect x="139" y="165" class="st6" width="27" height="27"/>
	</g>
	<g>
		<rect x="106" y="197" class="st6" width="27" height="27"/>
	</g>
	<g>
		<rect x="139" y="197" class="st6" width="27" height="27"/>
	</g>
</g>
<g>
	<g>
		<rect x="226" y="165" class="st6" width="27" height="27"/>
	</g>
	<g>
		<rect x="259" y="165" class="st6" width="27" height="27"/>
	</g>
	<g>
		<rect x="226" y="197" class="st6" width="27" height="27"/>
	</g>
	<g>
		<rect x="259" y="197" class="st6" width="27" height="27"/>
	</g>
</g>
<g>
	<path class="st7" d="M69,78.5h-8L2,40V8c0-4.4,4.6-7,9-7h368c9.2,0,55.3,31.6,55.3,31.6c1.8,1.2,2.7,3.2,2.7,5.9v40h-8H69z"/>
	<g>
		<path class="st8" d="M393,42V10c0-4.4-3.6-8-8-8H13c-4.4,0-8,3.6-8,8L2,40l3,2H393z"/>
	</g>
	<g>
		<path class="st9" d="M390,41V9c0-4.4-3.6-8-8-8H10C5.6,1,2,4.6,2,9v32H390z"/>
	</g>
	<g class="st10">
		<path class="st11" d="M388.6,4.4C387.3,3.5,385.7,3,384,3H12c-4.4,0-8,3.6-8,8v30H2V9c0-4.4,3.6-8,8-8h372
			C384.7,1,387.1,2.4,388.6,4.4z"/>
	</g>
	<g class="st1">
		<g>
			<rect x="362" y="1" class="st2" width="4" height="40"/>
		</g>
	</g>
	<g class="st1">
		<g>
			<rect x="334" y="1" class="st2" width="4" height="40"/>
		</g>
	</g>
	<g class="st1">
		<g>
			<rect x="306" y="1" class="st2" width="4" height="40"/>
		</g>
	</g>
	<g class="st1">
		<g>
			<rect x="278" y="1" class="st2" width="4" height="40"/>
		</g>
	</g>
	<g class="st1">
		<g>
			<rect x="250" y="1" class="st2" width="4" height="40"/>
		</g>
	</g>
	<g class="st1">
		<g>
			<rect x="222" y="1" class="st2" width="4" height="40"/>
		</g>
	</g>
	<g class="st1">
		<g>
			<rect x="194" y="1" class="st2" width="4" height="40"/>
		</g>
	</g>
	<g class="st1">
		<g>
			<rect x="166" y="1" class="st2" width="4" height="40"/>
		</g>
	</g>
	<g class="st1">
		<g>
			<rect x="138" y="1" class="st2" width="4" height="40"/>
		</g>
	</g>
	<g class="st1">
		<g>
			<rect x="110" y="1" class="st2" width="4" height="40"/>
		</g>
	</g>
	<g class="st1">
		<g>
			<rect x="82" y="1" class="st2" width="4" height="40"/>
		</g>
	</g>
	<g class="st1">
		<g>
			<rect x="54" y="1" class="st2" width="4" height="40"/>
		</g>
	</g>
	<g class="st1">
		<g>
			<rect x="26" y="1" class="st2" width="4" height="40"/>
		</g>
	</g>
</g>
<g>
	<g>
		<path class="st5" d="M19.6,42c0,4-3.6,8.1-8.1,8.1S3.4,46,3.4,42H19.6z"/>
		<path class="st5" d="M11.6,51.1c-5.2,0-9.1-4.8-9.1-9.1c0-0.6,0.4-1,1-1h16.2c0.6,0,1,0.4,1,1C20.6,46.3,16.8,51.1,11.6,51.1z
			 M4.6,43c0.5,3,3.3,6.1,7,6.1c3.7,0,6.5-3,7-6.1H4.6z"/>
	</g>
	<g>
		<path class="st5" d="M35.8,42c0,4-3.6,8.1-8.1,8.1S19.6,46,19.6,42H35.8z"/>
		<path class="st5" d="M27.7,51.1c-5.2,0-9.1-4.8-9.1-9.1c0-0.6,0.4-1,1-1h16.2c0.6,0,1,0.4,1,1C36.8,46.3,32.9,51.1,27.7,51.1z
			 M20.7,43c0.5,3,3.3,6.1,7,6.1s6.5-3,7-6.1H20.7z"/>
	</g>
	<g>
		<path class="st5" d="M52,42c0,4-3.6,8.1-8.1,8.1S35.8,46,35.8,42H52z"/>
		<path class="st5" d="M43.9,51.1c-5.2,0-9.1-4.8-9.1-9.1c0-0.6,0.4-1,1-1H52c0.6,0,1,0.4,1,1C53,46.3,49.1,51.1,43.9,51.1z
			 M36.9,43c0.5,3,3.3,6.1,7,6.1s6.5-3,7-6.1H36.9z"/>
	</g>
</g>
<g>
	<g>
		<path class="st5" d="M287.9,42c0,4-3.6,8.1-8.1,8.1s-8.1-4.1-8.1-8.1H287.9z"/>
		<path class="st5" d="M279.8,51.1c-5.2,0-9.1-4.8-9.1-9.1c0-0.6,0.4-1,1-1h16.2c0.6,0,1,0.4,1,1C288.9,46.3,285,51.1,279.8,51.1z
			 M272.8,43c0.5,3,3.3,6.1,7,6.1s6.5-3,7-6.1H272.8z"/>
	</g>
	<g>
		<path class="st5" d="M304.1,42c0,4-3.6,8.1-8.1,8.1s-8.1-4.1-8.1-8.1H304.1z"/>
		<path class="st5" d="M296,51.1c-5.2,0-9.1-4.8-9.1-9.1c0-0.6,0.4-1,1-1h16.2c0.6,0,1,0.4,1,1C305.1,46.3,301.2,51.1,296,51.1z
			 M289,43c0.5,3,3.3,6.1,7,6.1s6.5-3,7-6.1H289z"/>
	</g>
</g>
<g>
	<g>
		<path class="st5" d="M356.7,42c0,4-3.6,8.1-8.1,8.1s-8.1-4.1-8.1-8.1H356.7z"/>
		<path class="st5" d="M348.6,51.1c-5.2,0-9.1-4.8-9.1-9.1c0-0.6,0.4-1,1-1h16.2c0.6,0,1,0.4,1,1C357.7,46.3,353.8,51.1,348.6,51.1z
			 M341.6,43c0.5,3,3.3,6.1,7,6.1s6.5-3,7-6.1H341.6z"/>
	</g>
	<g>
		<path class="st5" d="M372.9,42c0,4-3.6,8.1-8.1,8.1s-8.1-4.1-8.1-8.1H372.9z"/>
		<path class="st5" d="M364.8,51.1c-5.2,0-9.1-4.8-9.1-9.1c0-0.6,0.4-1,1-1h16.2c0.6,0,1,0.4,1,1C373.9,46.3,370,51.1,364.8,51.1z
			 M357.8,43c0.5,3,3.3,6.1,7,6.1s6.5-3,7-6.1H357.8z"/>
	</g>
	<g>
		<path class="st5" d="M389.1,42c0,4-3.6,8.1-8.1,8.1s-8.1-4.1-8.1-8.1H389.1z"/>
		<path class="st5" d="M381,51.1c-5.2,0-9.1-4.8-9.1-9.1c0-0.6,0.4-1,1-1h16.2c0.6,0,1,0.4,1,1C390.1,46.3,386.2,51.1,381,51.1z
			 M374,43c0.5,3,3.3,6.1,7,6.1s6.5-3,7-6.1H374z"/>
	</g>
</g>
<g>
	<rect class="st12" width="392" height="270"/>
</g>
</svg>
